Resources/app/storefront/src/assets/icon-pack/cinema/ic-profile.svg

<?xml version="1.0" encoding="UTF-8"?>
<svg width="22px" height="23px" viewBox="0 0 22 23" version="1.1" xmlns="http://www.w3.org/2000/svg" xmlns:xlink="http://www.w3.org/1999/xlink">
    <title>E0EC5DA8-AFFD-4E4B-80C0-426D1C243EC2@1x</title>
    <defs>
        <path d="M11.9645545,13 C17.2427957,13 21.7829117,16.6694248 22.9738349,21.7727434 C23.0993453,22.3105776 22.7650907,22.8483246 22.2272566,22.9738349 C21.6894224,23.0993453 21.1516754,22.7650907 21.0261651,22.2272566 C20.0448022,18.0219414 16.3058062,15 11.9645545,15 C7.71973745,15 4.04166311,17.8903015 2.96700254,21.9693253 C2.82629877,22.503386 2.27929404,22.8222649 1.74523328,22.6815611 C1.21117253,22.5408573 0.892293684,21.9938526 1.03299746,21.4597919 C2.33712068,16.5098106 6.8035559,13 11.9645545,13 Z M12.0153144,0.25 C15.0153144,0.25 17.5153144,2.75 17.5153144,5.75 C17.5153144,8.75 15.0153144,11.25 12.0153144,11.25 C9.01531437,11.25 6.51531437,8.75 6.51531437,5.75 C6.51531437,2.75 9.01531437,0.25 12.0153144,0.25 Z M12.0153144,2.25 C10.1153144,2.25 8.51531437,3.85 8.51531437,5.75 C8.51531437,7.65 10.1153144,9.25 12.0153144,9.25 C13.9153144,9.25 15.5153144,7.65 15.5153144,5.75 C15.5153144,3.85 13.9153144,2.25 12.0153144,2.25 Z" id="path-1"></path>
    </defs>
    <g id="Lizenzen-&amp;-Assets-✅" stroke="none" stroke-width="1" fill="none" fill-rule="evenodd">
        <g id="Icons" transform="translate(-388.000000, -490.000000)">
            <g id="Group" transform="translate(387.000000, 490.000000)">
                <mask id="mask-2" fill="white">
                    <use xlink:href="#path-1"></use>
                </mask>
                <use id="Shape" fill="#000000" fill-rule="nonzero" xlink:href="#path-1"></use>
                <g mask="url(#mask-2)" fill="#071C31" id="Rectangle">
                    <g>
                        <rect x="0" y="0" width="24" height="24"></rect>
                    </g>
                </g>
            </g>
        </g>
    </g>
</svg>

<?xml version="1.0" encoding="UTF-8"?><svg width="22" height="23" xmlns="http://www.w3.org/2000/svg" xmlns:xlink="http://www.w3.org/1999/xlink"><defs><path d="M11.96 13c5.28 0 9.82 3.67 11.01 8.77a1 1 0 1 1-1.94.46A9.33 9.33 0 0 0 11.96 15a9.33 9.33 0 0 0-9 6.97 1 1 0 0 1-1.93-.51A11.33 11.33 0 0 1 11.96 13ZM12.02.25c3 0 5.5 2.5 5.5 5.5s-2.5 5.5-5.5 5.5-5.5-2.5-5.5-5.5 2.5-5.5 5.5-5.5Zm0 2c-1.9 0-3.5 1.6-3.5 3.5s1.6 3.5 3.5 3.5 3.5-1.6 3.5-3.5-1.6-3.5-3.5-3.5Z" id="a-profile"/></defs><g transform="translate(-1)" fill="none" fill-rule="evenodd"><mask id="b-profile" fill="#fff"><use xlink:href="#a-profile"/></mask><use fill="#000" fill-rule="nonzero" xlink:href="#a-profile"/><g mask="url(#b-profile)" fill="currentColor"><path d="M0 0h24v24H0z"/></g></g></svg>
